X:1
T:Winterreise, D.911
T:Wasserfluth
T:Wilhelm Müller
T:Franz Schubert
T:Winterreise, D.911
T:6. Wasserfluth
T:OpenScore (CC0)
T:OpenScore (CC0)
C:Franz Schubert
Z:Wilhelm Müller
Z:OpenScore (CC0)
%%score 1 { ( 2 4 ) | ( 3 5 ) }
L:1/8
Q:1/4=45
M:3/4
K:A
V:1 treble nm="Singstimme\nVoice"
V:2 treble nm="Pianoforte"
V:4 treble 
V:3 bass 
V:5 bass 
V:1
"^Langsam" z6 | z6 | z6 | z6 |: (3FA c f3 c | (3AG F c2 C z | G3/2 c/ G3/2 c/ (3Gc B | A4 z2 | %8
w: ||||Man- * che Thrän' aus|mei- * nen Au- gen|ist ge- fal- len in * den|Schnee;|
w: ||||Schnee, * du weisst von|mei- * nem Seh- nen,|sag', wo- hin doch geht * dein|Lauf?|
 (3FA c f3 c | (3AG F c2 C z | (3CF G A3/2 B/ (3c^d ^e |!<(! (f3!>(! =g =e) z!<)!!>)! | %12
w: sei- * ne kal- ten|flo- * cken sau- gen-|dur- * stig ein das hei- * sse|Weh, * *|
w: Fol- * ge nach nur|mei- * nen Thrä- nen,|nimmt- * dich bald das Bäch- * lein|auf, * *|
 (3dc B (3cB A (3BA G | F4 z2 | z6 | z6 | z6 | z6 | (3dc B B2- (3BA G | (3dc B B2- (3BA G | %20
w: durch- * stig ein * das hei- * sse|Weh.|||||Wenn * die Grä- * * ser|spros- * sen wol- * * len|
w: nimmt * dich bald * das Bäch- * lein|auf.|||||Wirst * mit ihm * * die|Stadt * durch- zie- * * hen,|
 (3cA E (3CE A (3cd e | B4 z2 | (3dc B B2- (3BA G | (3dc B B2- (3BA G | (3AE C (3ec A (3Bd G | %25
w: weht * da- her * ein lau- * er|Wind,|und * das Eis * * zer-|springt * in Schol- * * len|und * der wei- * che Schnee * zer-|
w: mun- * tre Stra- * ssen ein * und|aus;|fühlst * du mei- * * ne|Thrä- * nen glü- * * hen,|da * ist mei- * ner Lieb- * sten|
 A4 z2 | (3FA c (3fa f (3^eg e | f6 | z6 | z6 | z6 | z6 :| %32
w: rinnt,|und * der wei- * che Schnee * zer-|rinnt.|||||
w: Haus,|da * ist mei- * ner Lieb- * sten|Haus.|||||
V:2
 (3(Fcf) (!>!c3 ^E) | (3(Fcf) (!>!c3 ^E) | F>(F c>)c c>c | [FAc]6 |:!p! [CFA]>[CFA] [CFA]4 | %5
 [CFA]>[CFA] [CFA]4 | [C^EG]>[CEG] [CEG]>[CEG] [CEG]>[CEG] | [CEA]6 | [CFA]>[CFA] [CFA]4 | %9
 [CFA]>[CFA] [CFA]4 | [CFc]>[CFc]!<(! [CFc]>[CFc] [^EGc]>[EGc]!<)! |!>(! [Ece]6!>)! | %12
 [DFBd]>[DFB] [CFAc]>[CFAc] [^EGc^e]>[EGce] | [FAcf]6 | (3(Fcf) (c3 ^E) | (3(Fcf) (c3 ^E) | %16
 F>(F c>)c e>e | e6 | [DG]>[DG] [DG]4 | [DG]>[DG] [DG]4 | [CEA]>[CEA] [CEA]>[CEA] [EAc]>[EAe] | %21
 [GB]6 | [DG]>[DG] [DG]4 | [DG]>[DG] [DG]4 | [CEA]>[CEA] [CEA]>[CEA] [DG]>[DG] | [CA]6 | %26
 [CFA]>[CFA] [CFAc]>[CFAc] [^EGc^e]>[EGce] | [FAcf]6 |!pp! (3(Fcf) (!>!c3 ^E) | %29
 (3(Fcf) (!>!c3 ^E) | F>(F c>)c (3([GB][FA]).[CG] | [A,CF]6 :| %32
V:3
 [F,A,C]>[F,A,C] [G,B,C]4 | [F,A,C]>[F,A,C] [G,B,C]4 | %2
 [F,A,C]>[F,A,C] [C,A,C]>[C,A,C] [C,C]>[C,C] | [F,C]6 |: F,>F, F,4 | F,>F, F,4 | %6
 C,>C, C,>C, C,>C, | F,6 | F,>F, F,4 | F,>F, F,4 | [C,A,]>[C,A,] [C,A,]>[C,A,] [C,B,C]>[C,B,C] | %11
 (F,2 =G,4) |!p! [B,,F,B,]>[D,F,B,] [C,F,A,]>[C,F,A,] [C,B,C]>[C,B,C] | [F,A,C]6 | %14
 [F,A,C]>[F,A,C] !>![G,B,C]4 | [F,A,C]>[F,A,C] !>![G,B,C]4 | %16
 [F,A,C]>[F,A,C] [E,A,C]>[E,A,C] [E,E]>[E,E] | [A,E]6 | [=F,B,]>[F,B,] [F,B,]4 | %19
 [E,B,]>[E,B,] [E,B,]4 | [E,A,]>[E,A,] [E,A,]>[E,A,] [E,A,]>[E,C] | [E,E]6 | %22
 [=F,B,]>[F,B,] [F,B,]4 | [E,B,]>[E,B,] [E,B,]4 | [E,A,]>[E,A,] [E,A,]>[E,A,] [=F,B,]>[E,B,] | %25
 [A,,E,A,]6 |!mf! [C,F,A,]>[C,F,A,] [C,F,A,]>[C,F,A,] [C,G,B,C]>[C,G,B,C] | [F,A,C]6 | %28
 [F,A,C]>[F,A,C] [G,B,C]4 | [F,A,C]>[F,A,C] [G,B,C]4 | [F,A,C]>[F,A,C] [C,A,C]>[C,A,C] [C,C]>C, | %31
 F,6 :| %32
V:4
 x6 | x6 | x4 (3([^EG][FA]).[GB] | x6 |: x6 | x6 | x6 | x6 | x6 | x6 | x6 | (=F2 =G4) | x6 | x6 | %14
 x6 | x6 | x4 (3([GB][Ac])[Bd] | [Ac]6 | x6 | x6 | x6 | x6 | x6 | x6 | x6 | x6 | x6 | x6 | x6 | %29
 x6 | x6 | x6 :| %32
V:5
 x6 | x6 | x6 | x6 |: x6 | x6 | x6 | x6 | x6 | x6 | x6 | [^A,,^A,]6 | x6 | x6 | x6 | x6 | x6 | x6 | %18
 x6 | x6 | x6 | x6 | x6 | x6 | x6 | x6 | x6 | x6 | x6 | x6 | x6 | x6 :| %32

